X:1
T:Title
%%score { 1 | ( 2 3 ) }
L:1/8
M:6/8
K:Ab
V:1 treble nm="Grand Piano"
V:2 bass 
V:3 bass 
V:1
 z3 z2[Q:1/4=84] [CE] | [CE][_C=D][=CE] [_DF]2 [CE] | [CE][EA]B c2 d | cB=A B2 c | %4
[M:5/8] [CA]-[CA]- [CA]3 |[M:1/8] [CE] |[M:3/4] [CE][_C=D] [=CE] [_DF]2 [CE] | [CE][EA] B c2 d | %8
 cB =A B2 c | [CA]6 | [Fd]2 [Fd] [DF]3 | [Ec]2 [Ec] [CE]3 | B2 BB =AB | c2 A c3 | %14
 [Fd]2 [Fd] [DF]3 | [Ec]2 [Ec] [CE]3 | cB =A B2 c |[M:5/8] [CA]-[CA]- [CA]3 |] %18
V:2
 z3 z2 [A,,A,] | [A,,A,]2 [A,,A,] [A,,A,]2 [A,,A,] | A,,C,[E,G,E][K:treble] [A,E]2 [A,F] | %3
 [A,E][G,D][E,_G,C] [E,=G,D]2 [E,G,E] |[M:5/8] [A,,A,]-[A,,A,]- [A,,A,]3 |[M:1/8] [A,,A,] | %6
[M:3/4] [A,,A,]2 [A,,A,] [A,,A,]2 [A,,A,] | A,,C, [E,G,E] [A,E]2 [A,F] | %8
 [E,E]-[E,G,E] [E,_G,C] [E,=G,D]2 [E,G,E] | [A,,A,]6 | [D,A,]2 [D,A,][D,A,] F,A, | %11
 [A,,A,]2 [A,,A,][A,,A,] A,,A, | [E,G,D]2 [E,G,D][E,G,D] [E,_G,C][E,=G,D] | [A,E]2 [A,C] [A,E]3 | %14
 [D,A,]2 [D,A,][D,A,] F,A, | [A,,A,]2 [A,,A,][A,,A,] A,,A, | %16
 [E,A,E][E,G,D] [E,_G,C] [E,=G,D]2 [E,G,E] |[M:5/8] [A,,A,]-[A,,A,]- [A,,A,]3 |] %18
V:3
 x6 | x6 | .A,3[K:treble] z3 | .E,3 z3 |[M:5/8] x5 |[M:1/8] x |[M:3/4] x6 | A,2 z2 z2 | %8
 .A,2 z2 z2 | x6 | x6 | x6 | x6 | x6 | x6 | x6 | x6 |[M:5/8] x5 |] %18

